X:350
T: ES GIENG EIN KNAB SPAZIEREN
N: E0197C
O: Europa, Mitteleuropa, Deutschland, Schlesien
R: erzaehlendes Volks - Lied, Tod, Toten - Sage, Grabesstimme
M: 2/4
L: 1/16
K: C
E2 | G2E2G2E2 | G2c2A4 |
G4 | G2E2GFD2 | E4z2
E2 | G2E2G2E2 | G2c2A4 |
G4 | G2E2GFD2 | E4z2

@@@ Tune index: 4000
